icon-themes/breeze_svg/cmd/sc_viewformasgrid.svg

<svg viewBox="0 0 16 16" xmlns="http://www.w3.org/2000/svg">/&gt;<path d="m2 1v1 2 1h12v-1-2-1zm1 1h3v2h-3zm4 0h2v2h-2zm3 0h3v2h-3zm-2.59375 4c-.2052023.0068012-.3936954.0167013-.59375.03125-1.7089548.1366681-3.4036799.4328732-4.6875 1.59375-.0421478.0631367-.0720474.1229971-.09375.1875-.0181.0608226-.0321562.1259763-.03125.1875v4c.007.66405.77174.98126 1 1.09375 1.08093.55161 3.02343.90325 5 .90625 1.97657-.003 3.91907-.35464 5-.90625.22826-.11249.993-.4297 1-1.09375v-4c0-.06545-.009547-.1229971-.03125-.1875s-.051602-.1243633-.09375-.1875c-1.201069-1.2282022-3.075947-1.4125048-4.6875-1.59375-.010497-.0007634-.020737.0007427-.03125 0-.3788196-.0280984-.7635512-.03125-1.15625-.03125-.19776-.003-.396-.003-.59375 0zm-.3125 1c.0208-.00003.0417-.00003.0625 0 .28058-.005.56317-.005.84375 0 .28058-.005.56317-.005.84375 0 .0208-.00003.0417-.00003.0625 0 1.652539.060841 3.037827.3171962 3.6875.625.13211.059147.242254.1243633.3125.1875.060539.0621462.099022.1236953.09375.1875 0 .5236-2.38201 1-5 1s-5-.4764-5-1c-.0052723-.0638047.0332109-.1253538.09375-.1875.0650105-.0667363.1800254-.1247358.3125-.1875.6496726-.3078038 2.0349611-.5641589 3.6875-.625zm-4.09375 2.09375c1.08093.55161 3.02343.90325 5 .90625 1.97657-.003 3.91907-.35464 5-.90625v2.90625c0 .5236-2.38201 1-5 1s-5-.4764-5-1z" fill="#4d4d4d"/></svg>

<svg xmlns="http://www.w3.org/2000/svg" viewBox="0 0 16 16">
     />
 <path 
     style="fill:#4d4d4d" 
     d="M 2 1 L 2 2 L 2 4 L 2 5 L 14 5 L 14 4 L 14 2 L 14 1 L 2 1 z M 3 2 L 6 2 L 6 4 L 3 4 L 3 2 z M 7 2 L 9 2 L 9 4 L 7 4 L 7 2 z M 10 2 L 13 2 L 13 4 L 10 4 L 10 2 z M 7.40625 6 C 7.2010477 6.0068012 7.0125546 6.0167013 6.8125 6.03125 C 5.1035452 6.1679181 3.4088201 6.4641232 2.125 7.625 C 2.0828522 7.6881367 2.0529526 7.7479971 2.03125 7.8125 C 2.01315 7.8733226 1.9990938 7.9384763 2 8 L 2 12 C 2.007 12.66405 2.77174 12.98126 3 13.09375 C 4.08093 13.64536 6.02343 13.997 8 14 C 9.97657 13.997 11.91907 13.64536 13 13.09375 C 13.22826 12.98126 13.993 12.66405 14 12 L 14 8 C 14 7.93455 13.990453 7.8770029 13.96875 7.8125 C 13.947047 7.7479971 13.917148 7.6881367 13.875 7.625 C 12.673931 6.3967978 10.799053 6.2124952 9.1875 6.03125 C 9.177003 6.0304866 9.166763 6.0319927 9.15625 6.03125 C 8.7774304 6.0031516 8.3926988 6 8 6 C 7.80224 5.997 7.604 5.997 7.40625 6 z M 7.09375 7 C 7.11455 6.99997 7.13545 6.99997 7.15625 7 C 7.43683 6.995 7.71942 6.995 8 7 C 8.28058 6.995 8.56317 6.995 8.84375 7 C 8.86455 6.99997 8.88545 6.99997 8.90625 7 C 10.558789 7.060841 11.944077 7.3171962 12.59375 7.625 C 12.72586 7.684147 12.836004 7.7493633 12.90625 7.8125 C 12.966789 7.8746462 13.005272 7.9361953 13 8 C 13 8.5236 10.61799 9 8 9 C 5.38201 9 3 8.5236 3 8 C 2.9947277 7.9361953 3.0332109 7.8746462 3.09375 7.8125 C 3.1587605 7.7457637 3.2737754 7.6877642 3.40625 7.625 C 4.0559226 7.3171962 5.4412111 7.0608411 7.09375 7 z M 3 9.09375 C 4.08093 9.64536 6.02343 9.997 8 10 C 9.97657 9.997 11.91907 9.64536 13 9.09375 L 13 12 C 13 12.5236 10.61799 13 8 13 C 5.38201 13 3 12.5236 3 12 L 3 9.09375 z "
     />
 </svg>
